X:158
T:Crieff Fair
R:Strathspey
B:The Athole Collection
M:C
L:1/8
K:D Minor
A>BA>G A2 F>G|c>dc>A c>dc>A|A>BA>G F>G A2|f>de>^c d/d/d d2:|
d>ef>g a>fg>e|f>dc>A F>GA>c|d>ef>g a>fg>e|f>de>^c d/d/d d>f|
d>ef>g a>fg>e|f>dc>A F>GA>F|A>cF>A A/A/A a>g|f>de>^c d/d/d d2||

